X:83
T:The Boreal Owl
R:reel
C:Paul S. Cranford
O:Cape Breton Island
S:http://www.cranfordpub.com
D:currently unrecorded
B:Fiddler Magazine, 2000; Jerry Holland: The 2nd Collection
Z:psc, (updated 9/9/06)
N:
H:                                                        copyrights Cranford Publications, SOCAN
Q:288
L:1/8
M:C
K:Fmix
f|c>F A/B/c/B/ A<Fc>F|E>BGBG>f|c>F A/B/c/B/ A<Fc>F|E>e B<G F2 F:|
||=e|f>c a/g/f/=e/ f>cA<c|B>e E/F/G/E/ B>GE>g|f>c a/g/f/=e/ f>cA<c|B>e E/F/G/E/ F2 F>=e|
f>c a/g/f/=e/ f>cA<c|B>e E/F/G/E/ B>GE>e|c>F A/B/c/B/ A<Fc>f|e>E B<G F2 F|]
